X: 62
T: No_154_Switchgrass_Dance_Song_(d).krn
N: Derived from No_154_Switchgrass_Dance_Song_(d).krn
%%abc-version 2.0
%%abcx-abcm2ps-target-version 5.9.1 (29 Sep 2008)
%%abc-creator hum2abc beta
%%abcx-conversion-date 2019/03/15 08:38:45
%%humdrum-veritas 3403988971
%%humdrum-veritas-data 3712271691
%%linebreak <none>
%%barnumbers 0
L: 1/16
M: 2/4
K: G clef=bass
[K:clef=bass][M:2/4]D2D2 DB,G,2 ]|:  
B,A,A,G, G,D,D,2 ||  
[M:3/4]E,2D,D,D,4D,2 z2 | 
E,2D,D,D,4D,2 z2 ||  
[M:2/4]G,2G,2 G,2A,2 | 
B,A,A,G, G,D,D,2 ||  
[M:3/4]E,2D,D,D,4D,2 z2 | 
E,2D,D,D,4D,2 z2 | 
[M:2/4]D2C3/B,/ G,2A,2 :|]  



